azure-patterns/svg-azure-dedicated-hsm.svg

<svg xmlns="http://www.w3.org/2000/svg" viewBox="0 0 170 169">
                                
                            
<path d="M160.764 98.3282H10.0694C6.0056 98.3282 2.74121 101.601 2.74121 105.675V153.231C2.74121 157.306 6.0056 160.579 10.0694 160.579H160.764C164.828 160.579 168.093 157.306 168.093 153.231V105.675C168.159 101.601 164.828 98.3282 160.764 98.3282Z" fill="#3E3E3E"></path>
<path opacity="0.2" d="M130.985 98.3282H10.0694C6.0056 98.3282 2.74121 101.601 2.74121 105.675V153.231C2.74121 157.306 6.0056 160.579 10.0694 160.579H38.383L130.985 98.3282Z" fill="white"></path>
<path d="M154.902 110.818H144.975V120.77H154.902V110.818Z" fill="#B8D432"></path>
<path d="M135.049 110.818H125.123V120.77H135.049V110.818Z" fill="#B8D432"></path>
<path d="M115.196 110.818H105.27V120.77H115.196V110.818Z" fill="#B8D432"></path>
<path d="M118.194 42.8237C118.194 23.7879 102.805 8.35889 83.8181 8.35889C64.8313 8.35889 49.3754 23.7879 49.3754 42.8237C49.3754 58.9875 60.501 72.5463 75.4905 76.2867V117.431H58.9687V133.995H75.4905V147.287H92.0124V76.2867C107.069 72.5463 118.194 59.0543 118.194 42.8237ZM83.7514 60.9244C73.825 60.9244 65.6974 52.8426 65.6974 42.8237C65.6974 32.8049 73.7584 24.723 83.7514 24.723C93.7445 24.723 101.806 32.8049 101.806 42.8237C101.806 52.8426 93.7445 60.9244 83.7514 60.9244Z" fill="#FCD116"></path>
</svg>

<svg xmlns="http://www.w3.org/2000/svg" viewBox="0 0 170 169"><path d="M160.764 98.328H10.069a7.316 7.316 0 0 0-7.328 7.347v47.556a7.317 7.317 0 0 0 7.328 7.348h150.695a7.317 7.317 0 0 0 7.329-7.348v-47.556c.066-4.074-3.265-7.347-7.329-7.347z" fill="#3E3E3E"/><path opacity=".2" d="M130.985 98.328H10.069a7.316 7.316 0 0 0-7.328 7.347v47.556a7.317 7.317 0 0 0 7.328 7.348h28.314l92.602-62.25z" fill="#fff"/><path d="M154.902 110.818h-9.927v9.952h9.927v-9.952zM135.049 110.818h-9.926v9.952h9.926v-9.952zM115.196 110.818h-9.926v9.952h9.926v-9.952z" fill="#B8D432"/><path d="M118.194 42.824c0-19.036-15.389-34.465-34.376-34.465S49.375 23.788 49.375 42.824c0 16.163 11.126 29.722 26.115 33.463v41.144H58.97v16.564H75.49v13.292h16.522v-71c15.057-3.74 26.182-17.233 26.182-33.463zm-34.443 18.1c-9.926 0-18.054-8.081-18.054-18.1 0-10.02 8.061-18.101 18.054-18.101 9.993 0 18.055 8.082 18.055 18.1 0 10.02-8.061 18.101-18.055 18.101z" fill="#FCD116"/></svg>
